X:1
T:Title
%%score { ( 1 4 5 ) | ( 2 3 ) }
L:1/8
Q:1/4=100
M:4/4
K:Ab
V:1 treble nm="Grand Piano"
V:4 treble 
V:5 treble 
V:2 bass 
V:3 bass 
V:1
 [Ec]3 [Ec] [Fd][Ec][DB][CA] | [Ec]2 [CA]2 [DF]2 [CE]2 | [B,DG]3 [DG] [A,CA]3 A | B6 z2 | %4
w: Chas.~H.~Gabriel * * * * *||||
 [Ec]3 [Ec] [Fd][Ec][DB][CA] | [Ec]2 [EA]2 [DF]2 [Fd]2 | %6
w: ||
 c4[K:bass][K:treble] B4[K:bass][K:treble] | [CA]6 z2 | e3 f ecBA | d2 .B2 z4 | %10
w: ||||
 [EAc]3 [EAc] .[=DAc]2 [AB]A | B6 z2 | [CAe]3 [DAf] [CAe][Ec][EB][EA] | [Fd]3 [Fe] [Fd][DF][EG]F | %14
w: ||||
 z4 e2 G2 |[M:3/4] A6 |] %16
w: ||
V:2
 [A,,A,]3 [A,,A,] [A,,A,][A,,A,][A,,A,][A,,A,] | [A,,A,]2 [A,,A,]2 [A,,A,]2 [A,,A,]2 | %2
 E,E, z B, E,E,E,[E,A,C] | .E2[K:treble] FG A=AB_c | %4
 [A,,A,]3 [A,,A,] [A,,A,][A,,A,][A,,A,][A,,A,] | [A,,A,]2 [C,A,]2 [D,A,]2 [D,A,]2 | %6
 [A,E]3 [A,E] [G,D]3 [E,G,D] | [A,,A,]6 z2 | [A,CA]3 [A,DA] [A,CA][A,E][A,DE][K:bass][A,CE] | %9
 B,-[F,B,]G,A, B,2 E,2 | A,3 A, z[K:treble] c[K:bass] [F,=D]2 | [E,E][E,E][E,E][E,E] E,D,C,B,, | %12
 A,,3 A,, A,,[A,,A,][B,,G,][C,A,] | [D,A,]3 [D,A,] [D,A,][D,A,][D,A,][D,A,D] | %14
 [E,A,C][E,A,C][E,A,E][E,CE] [E,B,E][E,B,][E,DE][E,D] |[M:3/4] A,,A,, A,,A,, A,,2 |] %16
V:3
 x8 | x8 | z2 E,2 z4 | [E,G,]6[K:treble] z2 | x8 | x8 | .E,2 z2 .E,2 z2 | x8 | x7[K:bass] x | %9
 .E,2 z2 z4 | z4 F,2[K:treble][K:bass] z2 | x8 | x8 | x8 | x8 |[M:3/4] x6 |] %16
V:4
 x8 | x8 | x8 | z E3- E2 z2 | x8 | x8 | z[K:bass] E, z[K:treble] c z[K:bass] E,E,[K:treble]B | x8 | %8
 x8 | GA[Ed]-[EFd] [EGd]2 [EGB]2 | x8 | GGGG [EG]2 [EAc][DEd] | x8 | x8 | EAcA z E z E | %15
[M:3/4] [CE][CE] [DF][DF] [CE]2 |] %16
V:5
 x8 | x8 | x8 | x8 | x8 | x8 | z2[K:bass] E,2[K:treble] z4[K:bass][K:treble] | x8 | x8 | x8 | x8 | %11
 x8 | x8 | x8 | x8 |[M:3/4] x6 |] %16

